X:703
T:Godnattlåten
R:polska
M:3/4
S:Efter [[Personer/Per Myhr]], Glöte
O:Glöte, Härjedalen
Z:Lennart Sohlman
N:(Metronomtal infört enligt föregående version - förmodligen, om något, en aning lågt)
B:EÖ nr 703
Q:1/4=136
L:1/8
K:Am
A>B c2 c>d|e>f ed d2|e2 c2 ce|ed B4::!
B>c A2- A>c|B>^G A2 ce|e>d Bc A2|"^B?"A>^G E4-|!
E>c A2- A>c|B>A ^GA ce|(e>d) (Bc) A>c|(3BA^G A4:|]

